src/actions/16/debug-run-cursor.svg

<svg viewBox="0 0 16 16" xmlns="http://www.w3.org/2000/svg">
 <defs>
  <style type="text/css">.ColorScheme-Text {
        color:#2e3440;
      }</style>
 </defs>
 <path class="ColorScheme-Text" d="m9 2v1h2v10h-2v1h5v-1h-2v-10h2v-1h-5zm-4 3v2h-3v2h3v2l3-3-3-3z" fill="currentColor"/>
</svg>

<svg xmlns="http://www.w3.org/2000/svg" viewBox="0 0 16 16">
  <defs id="defs3051">
    <style type="text/css" id="current-color-scheme">
      .ColorScheme-Text {
        color:#2e3440;
      }
      </style>
  </defs>
 <path style="fill:currentColor;fill-opacity:1;stroke:none" 
       d="M 9 2 L 9 3 L 11 3 L 11 13 L 9 13 L 9 14 L 14 14 L 14 13 L 12 13 L 12 3 L 14 3 L 14 2 L 9 2 z M 5 5 L 5 7 L 2 7 L 2 9 L 5 9 L 5 11 L 8 8 L 5 5 z "
     class="ColorScheme-Text"
     />
</svg>
